X: 20120
T: Jimmy's Favourite
R: jig
M: 6/8
K: Gmajor
|:d|gbg gdB|G2 G GAB|cdc B2 A|E3- E2 g|
f2 f fed|fgf f2 e|1 ded ded|B3 B2:|2 ded def g3 g3||
|:G2 G GDB,|GDB, GDB,|G2 G GAB|c3- cBA|
F2 F FED|FED F2 E|DFA cBA|1 G3 G3:|2 G3 G2||

